X:1
T:The Silk Merchant's Daughter
M:3/4
L:1/4
K:F
 z2 D| A, D D| D C D| F G F| A2A/2-G/2| F EF/2-G/2| A cc/2-d/2| c A c|\
 G2 D| F G A| f d c/2c/2| d c d| A2A/2-G/2| F D D| c AA/2-G/2| F D F|\
 D2 z|
